packages/dnb-eufemia/assets/icons/download.svg

<svg width="16" height="16" viewBox="0 0 16 16" fill="none" xmlns="http://www.w3.org/2000/svg">
<path d="M5.87408 7.75092C5.58119 7.45803 5.10631 7.45803 4.81342 7.75092C4.52053 8.04381 4.52053 8.51869 4.81342 8.81158L5.87408 7.75092ZM8 10.9375L7.46967 11.4678C7.76256 11.7607 8.23744 11.7607 8.53033 11.4678L8 10.9375ZM11.1866 8.81158C11.4795 8.51869 11.4795 8.04381 11.1866 7.75092C10.8937 7.45803 10.4188 7.45803 10.1259 7.75092L11.1866 8.81158ZM8.75 2.5C8.75 2.08579 8.41421 1.75 8 1.75C7.58579 1.75 7.25 2.08579 7.25 2.5H8.75ZM3 13.25C2.58579 13.25 2.25 13.5858 2.25 14C2.25 14.4142 2.58579 14.75 3 14.75V13.25ZM13 14.75C13.4142 14.75 13.75 14.4142 13.75 14C13.75 13.5858 13.4142 13.25 13 13.25V14.75ZM4.81342 8.81158L7.46967 11.4678L8.53033 10.4072L5.87408 7.75092L4.81342 8.81158ZM8.53033 11.4678L11.1866 8.81158L10.1259 7.75092L7.46967 10.4072L8.53033 11.4678ZM7.25 2.5V10.9375H8.75V2.5H7.25ZM3 14.75H13V13.25H3V14.75Z" fill="black"/>
</svg>

<svg width="16" height="16" viewBox="0 0 16 16" fill="none" xmlns="http://www.w3.org/2000/svg"><path d="M5.874 7.75a.75.75 0 0 0-1.06 1.062l1.06-1.061ZM8 10.939l-.53.53a.75.75 0 0 0 1.06 0l-.53-.53Zm3.187-2.126a.75.75 0 1 0-1.061-1.061l1.06 1.06ZM8.75 2.5a.75.75 0 0 0-1.5 0h1.5ZM3 13.25a.75.75 0 0 0 0 1.5v-1.5Zm10 1.5a.75.75 0 0 0 0-1.5v1.5ZM4.813 8.812l2.657 2.656 1.06-1.06L5.874 7.75l-1.06 1.06Zm3.717 2.656 2.657-2.656-1.061-1.061-2.656 2.656 1.06 1.06ZM7.25 2.5v8.438h1.5V2.5h-1.5ZM3 14.75h10v-1.5H3v1.5Z" fill="#000"/></svg>
